X: 14921
T: Gatineau
R: reel
M: 4/4
K: Fmajor
AB|:cagf egfd|c2 AF CFAF|BAGA BcdB|c2 AF CFAF|
cagf egfd|c2 AF CFAF|BAGA Bcde|1 fgag f2 AB:|2 fgag f2 fg||
|:af ~f2 cfAc|fdec d2 ga|(3bag af gfef|gfed c2 fg|
af ~f2 cfAc|fdec d2 ga|(3bag af gfed|1 cage f2 fg:|2 cage f2 AB||

